Adwaita++/mimetypes/16/application-vnd.coffeescript.svg

<svg height="16" viewBox="0 0 16 16" width="16" xmlns="http://www.w3.org/2000/svg">
  <path d="m6.350877 2.13005c.014563.087312-.029125.160124-.174625.232874-.189187-.101875-.59675-.160125-.931437-.131-.363875.029125-.6695.145563-.625813.392938.058188.247437.407501.393 1.033312.33475 1.528125-.131 1.513563-1.164312 3.754875-1.368062 1.746437-.160063 2.7215.378437 2.852499 1.033312.101875.509375-.320187 1.00425-1.586375 1.106125-1.120624.101875-1.775562-.20375-1.833749-.509375-.029125-.160125.058187-.393.596687-.451188.058251.247438.363875.509375 1.091563.436625.523937-.043687.9605-.232875.902312-.523937-.058187-.305625-.61125-.480313-1.484499-.4075-1.775563.160062-2.212125 1.135187-3.72575 1.266187-1.076937.101875-1.950187-.291187-2.066624-.87325-.043626-.218312-.043626-.727687 1.091562-.829562.582125-.043687 1.047874.058188 1.106062.291063zm-5.675936 6.083498c-.494813.625812-.713125 1.353437-.6695 2.066625.043687.713124.392937 1.29525.946 1.746437.582125.451125 1.207937.582125 1.921124.451125.2765-.043625.582125-.189188.858625-.2765-.582125 0-1.076937-.189188-1.571812-.582125-.538438-.393-.902312-.946-.989625-1.615499-.131-.625813 0-1.207938.349313-1.717313.392937-.494812.902312-.771375 1.571749-.858687.6695-.043625 1.251625.131 1.83375.5385-.130938-.189188-.320125-.320188-.49475-.494813-.582187-.393-1.208-.582187-1.979375-.393-.698562.145625-1.280687.509375-1.775499 1.13525zm7.800811-3.361936c-1.8775 0-3.551125-.189188-4.759124-.451188-1.29525-.320188-1.979312-.669437-1.979312-1.120625 0-.189187.087374-.349312.349374-.5385-.815062.320188-1.251687.582188-1.251687.989688.043688.451125.771375.902312 2.255812 1.251625 1.397187.349249 3.187312.538437 5.341249.538437 2.197624 0 3.944062-.189188 5.341249-.538437 1.484437-.349313 2.197562-.815 2.197562-1.251625 0-.320188-.320188-.625813-.902312-.858688.130999.087313.232875.232875.232875.392938 0 .451187-.669501.814999-2.023 1.120625-1.251625.276562-2.852499.46575-4.802686.46575zm5.355749 1.251624c-1.397187.320188-3.18725.5385-5.34125.5385-2.197562 0-3.987686-.232875-5.384873-.5385-1.251625-.320187-1.921-.6695-2.153937-1.033312.232875 1.571812.771375 3.056249 1.484499 4.366124.5385.815 1.076938 1.528125 1.615437 2.2995.232875.451125.392938.902312.494813 1.353499.349313.494813.858749.815 1.484499.989625.771375.2765 1.571813.392937 2.386875.349312h.08725c.815.043625 1.673749-.087374 2.459625-.349312.582124-.189187 1.076937-.494812 1.440811-.989625h.043626c.087312-.451249.232875-.902374.451187-1.353499.5385-.771375 1.077-1.4845 1.615437-2.2995.713125-1.295312 1.208-2.77975 1.4845-4.366124-.291062.4075-.960563.756812-2.168499 1.033312z" fill="#474747"/>
</svg>

<svg xmlns="http://www.w3.org/2000/svg" style="isolation:isolate" width="16" height="16" viewBox="0 0 16 16">
 <defs>
  <style id="current-color-scheme" type="text/css">
   .ColorScheme-Text { color:#474747; } .ColorScheme-Highlight { color:#5294e2; }
  </style>
  <linearGradient id="arrongin" x1="0%" x2="0%" y1="0%" y2="100%">
   <stop offset="0%" style="stop-color:#dd9b44"/>
   <stop offset="100%" style="stop-color:#ad6c16"/>
  </linearGradient>
  <linearGradient id="aurora" x1="0%" x2="0%" y1="0%" y2="100%">
   <stop offset="0%" style="stop-color:#09D4DF"/>
   <stop offset="100%" style="stop-color:#9269F4"/>
  </linearGradient>
  <linearGradient id="fitdance" x1="0%" x2="0%" y1="0%" y2="100%">
   <stop offset="0%" style="stop-color:#1AD6AB"/>
   <stop offset="100%" style="stop-color:#329DB6"/>
  </linearGradient>
  <linearGradient id="oomox" x1="0%" x2="0%" y1="0%" y2="100%">
   <stop offset="0%" style="stop-color:#efefe7"/>
   <stop offset="100%" style="stop-color:#8f8f8b"/>
  </linearGradient>
  <linearGradient id="rainblue" x1="0%" x2="0%" y1="0%" y2="100%">
   <stop offset="0%" style="stop-color:#00F260"/>
   <stop offset="100%" style="stop-color:#0575E6"/>
  </linearGradient>
  <linearGradient id="sunrise" x1="0%" x2="0%" y1="0%" y2="100%">
   <stop offset="0%" style="stop-color:#FF8501"/>
   <stop offset="100%" style="stop-color:#FFCB01"/>
  </linearGradient>
  <linearGradient id="telinkrin" x1="0%" x2="0%" y1="0%" y2="100%">
   <stop offset="0%" style="stop-color:#b2ced6"/>
   <stop offset="100%" style="stop-color:#6da5b7"/>
  </linearGradient>
  <linearGradient id="60spsycho" x1="0%" x2="0%" y1="0%" y2="100%">
   <stop offset="0%" style="stop-color:#df5940"/>
   <stop offset="25%" style="stop-color:#d8d15f"/>
   <stop offset="50%" style="stop-color:#e9882a"/>
   <stop offset="100%" style="stop-color:#279362"/>
  </linearGradient>
  <linearGradient id="90ssummer" x1="0%" x2="0%" y1="0%" y2="100%">
   <stop offset="0%" style="stop-color:#f618c7"/>
   <stop offset="20%" style="stop-color:#94ffab"/>
   <stop offset="50%" style="stop-color:#fbfd54"/>
   <stop offset="100%" style="stop-color:#0f83ae"/>
  </linearGradient>
  <linearGradient id="cyberneon" x1="0%" x2="0%" y1="0%" y2="100%">
   <stop offset="0" style="stop-color:#0abdc6"/>
   <stop offset="1" style="stop-color:#ea00d9"/>
  </linearGradient>
 </defs>
 <path style="fill:currentColor" class="ColorScheme-Text" d="M 6.350877 2.13005 C 6.36544 2.217362 6.321752 2.290174 6.176252 2.362924 C 5.987065 2.261049 5.579502 2.202799 5.244815 2.231924 C 4.88094 2.261049 4.575315 2.377487 4.619002 2.624862 C 4.67719 2.872299 5.026503 3.017862 5.652314 2.959612 C 7.180439 2.828612 7.165877 1.7953 9.407189 1.59155 C 11.153626 1.431487 12.128689 1.969987 12.259688 2.624862 C 12.361563 3.134237 11.939501 3.629112 10.673313 3.730987 C 9.552689 3.832862 8.897751 3.527237 8.839564 3.221612 C 8.810439 3.061487 8.897751 2.828612 9.436251 2.770424 C 9.494502 3.017862 9.800126 3.279799 10.527814 3.207049 C 11.051751 3.163362 11.488314 2.974174 11.430126 2.683112 C 11.371939 2.377487 10.818876 2.202799 9.945627 2.275612 C 8.170064 2.435674 7.733502 3.410799 6.219877 3.541799 C 5.14294 3.643674 4.26969 3.250612 4.153253 2.668549 C 4.109627 2.450237 4.109627 1.940862 5.244815 1.838987 C 5.82694 1.7953 6.292689 1.897175 6.350877 2.13005 Z M 0.674941 8.213548 C 0.180128 8.83936 -0.038184 9.566985 0.005441 10.280173 C 0.049128 10.993297 0.398378 11.575423 0.951441 12.02661 C 1.533566 12.477735 2.159378 12.608735 2.872565 12.477735 C 3.149065 12.43411 3.45469 12.288547 3.73119 12.201235 C 3.149065 12.201235 2.654253 12.012047 2.159378 11.61911 C 1.62094 11.22611 1.257066 10.67311 1.169753 10.003611 C 1.038753 9.377798 1.169753 8.795673 1.519066 8.286298 C 1.912003 7.791486 2.421378 7.514923 3.090815 7.427611 C 3.760315 7.383986 4.34244 7.558611 4.924565 7.966111 C 4.793627 7.776923 4.60444 7.645923 4.429815 7.471298 C 3.847628 7.078298 3.221815 6.889111 2.45044 7.078298 C 1.751878 7.223923 1.169753 7.587673 0.674941 8.213548 Z M 8.475752 4.851612 C 6.598252 4.851612 4.924627 4.662424 3.716628 4.400424 C 2.421378 4.080236 1.737316 3.730987 1.737316 3.279799 C 1.737316 3.090612 1.82469 2.930487 2.08669 2.741299 C 1.271628 3.061487 0.835003 3.323487 0.835003 3.730987 C 0.878691 4.182112 1.606378 4.633299 3.090815 4.982612 C 4.488002 5.331861 6.278127 5.521049 8.432064 5.521049 C 10.629688 5.521049 12.376126 5.331861 13.773313 4.982612 C 15.25775 4.633299 15.970875 4.167612 15.970875 3.730987 C 15.970875 3.410799 15.650687 3.105174 15.068563 2.872299 C 15.199562 2.959612 15.301438 3.105174 15.301438 3.265237 C 15.301438 3.716424 14.631937 4.080236 13.278438 4.385862 C 12.026813 4.662424 10.425939 4.851612 8.475752 4.851612 L 8.475752 4.851612 Z M 13.831501 6.103236 C 12.434314 6.423424 10.644251 6.641736 8.490251 6.641736 C 6.292689 6.641736 4.502565 6.408861 3.105378 6.103236 C 1.853753 5.783049 1.184378 5.433736 0.951441 5.069924 C 1.184316 6.641736 1.722816 8.126173 2.43594 9.436048 C 2.97444 10.251048 3.512878 10.964173 4.051377 11.735548 C 4.284252 12.186673 4.444315 12.63786 4.54619 13.089047 C 4.895503 13.58386 5.404939 13.904047 6.030689 14.078672 C 6.802064 14.355172 7.602502 14.471609 8.417564 14.427984 L 8.504814 14.427984 C 9.319814 14.471609 10.178563 14.34061 10.964439 14.078672 C 11.546563 13.889485 12.041376 13.58386 12.40525 13.089047 L 12.448876 13.089047 C 12.536188 12.637798 12.681751 12.186673 12.900063 11.735548 C 13.438563 10.964173 13.977063 10.251048 14.5155 9.436048 C 15.228625 8.140736 15.7235 6.656298 16 5.069924 C 15.708938 5.477424 15.039437 5.826736 13.831501 6.103236 L 13.831501 6.103236 Z"/>
</svg>
